assets/images/logo-bcg-light.svg

<svg height="202" viewBox="0 0 497 202" width="497" xmlns="http://www.w3.org/2000/svg"><path d="m41.5655 161.529v-43.641h57.4966c6.2349 0 11.7769 2.075 15.9349 6.237 4.154 4.154 6.925 9.696 6.925 15.237 0 6.236-2.771 11.777-6.925 15.932-4.158 4.156-9.7 6.235-15.9349 6.235zm0-78.971v-42.2578h47.8006c6.2326 0 11.7739 2.7708 15.2379 6.2351 4.158 3.4643 6.234 9.0062 6.234 15.241 0 5.5416-2.076 11.0835-6.234 14.5478-3.464 4.154-9.0062 6.2339-15.2379 6.2339zm455.1265 18.704c0-2.771-.692-5.5419-.692-8.3129s-.687-5.542-.687-8.3129h-78.283l-11.776 18.0118-11.777 18.702h60.264c-3.46 12.471-10.383 22.861-20.087 30.483-9.002 6.928-20.785 11.777-34.637 11.777-16.623 0-31.868-7.622-42.951-18.706-11.083-11.083-17.318-27.016-17.318-44.337 0-16.6232 6.235-31.8657 17.318-42.9478 11.083-11.0835 27.02-18.7034 43.646-18.7034 7.621 0 14.544 1.385 20.779 3.4641 6.235 2.0777 12.47 5.542 17.319 9.0027l10.395-16.6235 10.389-16.6253c-7.621-5.5418-16.624-9.6991-26.32-13.16331-10.396-2.77098-20.786-4.15513-31.87-4.15513-15.238 0-29.095 2.7708-40.872 7.61854-12.471 4.8515-22.861 12.47-31.869 21.476-21.474 20.783-27.014 42.2571-31.17 62.3441-4.855 20.087-6.929 38.105-21.473 52.65-6.235 5.542-13.164 10.389-20.093 13.157-7.619 3.467-15.24 4.855-23.553 4.855-18.009 0-33.251-6.929-45.028-18.012-11.083-11.777-18.012-27.016-18.012-44.337 0-15.9313 6.928-31.8666 18.012-42.9482 11.777-11.0835 27.019-18.7036 45.028-18.7036 6.927 0 13.857 1.385 20.092 3.4643 6.235 2.0776 11.772 4.8482 17.319 9.0026l10.389-16.6237 10.39-17.3185c-7.622-5.5418-16.625-9.697-26.326-12.47008-10.386-2.77098-20.78-4.15512-31.864-4.15512-17.319 0-33.944 4.15512-47.799 11.0836-13.852 7.6184-26.324 18.0109-35.33 30.4812-3.464-11.0849-11.083-20.0918-20.782-27.0179-10.388-6.9284-22.859-10.3916-37.4063-10.3916h-90.0567v192.583h99.0621c12.4699 0 24.2479-2.768 33.2539-8.315 9.005-4.849 16.623-12.47 21.472-20.78 9.699 9.696 20.783 18.012 33.945 24.242 12.469 5.547 27.017 9.008 42.257 9.008 18.011 0 33.948-4.154 48.492-11.777 14.545-7.615 26.327-18.012 35.331-31.869 9.002 13.17 20.785 24.254 35.33 31.869 14.545 7.623 31.176 11.777 49.182 11.777 27.714 0 51.956-11.084 69.965-29.789 17.322-18.006 28.402-42.947 28.402-70.657z" fill="#fff"/></svg>

<?xml version="1.0" encoding="UTF-8"?>
<svg width="497px" height="202px" viewBox="0 0 497 202" version="1.1" xmlns="http://www.w3.org/2000/svg" xmlns:xlink="http://www.w3.org/1999/xlink">
    <!-- Generator: Sketch 52.6 (67491) - http://www.bohemiancoding.com/sketch -->
    <title>logo_bcg</title>
    <desc>Created with Sketch.</desc>
    <g id="Page-1" stroke="none" stroke-width="1" fill="none" fill-rule="evenodd">
        <g id="logo_bcg" fill="#FFFFFF" fill-rule="nonzero">
            <path d="M41.5655,161.529 L41.5655,117.888 L99.0621,117.888 C105.297,117.888 110.839,119.963 114.997,124.125 C119.151,128.279 121.922,133.821 121.922,139.362 C121.922,145.598 119.151,151.139 114.997,155.294 C110.839,159.45 105.297,161.529 99.0621,161.529 L41.5655,161.529 Z M41.5655,82.558 L41.5655,40.3002 L89.3661,40.3002 C95.5987,40.3002 101.14,43.071 104.604,46.5353 C108.762,49.9996 110.838,55.5415 110.838,61.7763 C110.838,67.3179 108.762,72.8598 104.604,76.3241 C101.14,80.4781 95.5978,82.558 89.3661,82.558 L41.5655,82.558 Z M496.692,101.262 C496.692,98.491 496,95.7201 496,92.9491 C496,90.1781 495.313,87.4071 495.313,84.6362 L417.03,84.6362 L405.254,102.648 L393.477,121.35 L453.741,121.35 C450.281,133.821 443.358,144.211 433.654,151.833 C424.652,158.761 412.869,163.61 399.017,163.61 C382.394,163.61 367.149,155.988 356.066,144.904 C344.983,133.821 338.748,117.888 338.748,100.567 C338.748,83.9438 344.983,68.7013 356.066,57.6192 C367.149,46.5357 383.086,38.9158 399.712,38.9158 C407.333,38.9158 414.256,40.3008 420.491,42.3799 C426.726,44.4576 432.961,47.9219 437.81,51.3826 L448.205,34.7591 L458.594,18.1338 C450.973,12.592 441.97,8.4347 432.274,4.97049 C421.878,2.19951 411.488,0.81536 400.404,0.81536 C385.166,0.81536 371.309,3.58616 359.532,8.4339 C347.061,13.2854 336.671,20.9039 327.663,29.9099 C306.189,50.6929 300.649,72.167 296.493,92.254 C291.638,112.341 289.564,130.359 275.02,144.904 C268.785,150.446 261.856,155.293 254.927,158.061 C247.308,161.528 239.687,162.916 231.374,162.916 C213.365,162.916 198.123,155.987 186.346,144.904 C175.263,133.127 168.334,117.888 168.334,100.567 C168.334,84.6357 175.262,68.7004 186.346,57.6188 C198.123,46.5353 213.365,38.9152 231.374,38.9152 C238.301,38.9152 245.231,40.3002 251.466,42.3795 C257.701,44.4571 263.238,47.2277 268.785,51.3821 L279.174,34.7584 L289.564,17.4399 C281.942,11.8981 272.939,7.7429 263.238,4.96982 C252.852,2.19884 242.458,0.8147 231.374,0.8147 C214.055,0.8147 197.43,4.96982 183.575,11.8983 C169.723,19.5167 157.251,29.9092 148.245,42.3795 C144.781,31.2946 137.162,22.2877 127.463,15.3616 C117.075,8.4332 104.604,4.97 90.0567,4.97 L0,4.97 L0,197.553 L99.0621,197.553 C111.532,197.553 123.31,194.785 132.316,189.238 C141.321,184.389 148.939,176.768 153.788,168.458 C163.487,178.154 174.571,186.47 187.733,192.7 C200.202,198.247 214.75,201.708 229.99,201.708 C248.001,201.708 263.938,197.554 278.482,189.931 C293.027,182.316 304.809,171.919 313.813,158.062 C322.815,171.232 334.598,182.316 349.143,189.931 C363.688,197.554 380.319,201.708 398.325,201.708 C426.039,201.708 450.281,190.624 468.29,171.919 C485.612,153.913 496.692,128.972 496.692,101.262 Z" id="Shape"></path>
        </g>
    </g>
</svg>
